X: 28555
T: Murdo On The Dance Floor
R: reel
M: 4/4
K: Adorian
|EA ~A2 BGAG|E/F/GAB ccBc|dG ~G2 dGeG|dG ~G2 BcBG|
~E3 A BGAG|E/F/GAB ccBc|dG ~G2 dGeG|BcBG ~A3 G|
E3 A BGAG|E/F/GAB ccBc|dG ~G2 dGeG|dG ~G2 BcBG|
EA ~A2 BGAG|E/F/GAB ccBc|dG ~G2 dGeG|BcBG ABce||
gc ~c2 Bcec|dBGd Bcde|gc ~c2 Bcec|dBGB ABce|
gc ~c2 Bcec|dBGd Bcde|gc ~c2 Bcec|dBGB A2 A2||

